X: 3737
T: Bird In The Bush, The
R: reel
M: 4/4
K: Gmajor
|:d3e ~d2B2|dBAB G2BG|EGA/B/c BAGA|BABd efge|
d2eB d~B3|dBAF GAGE|DEGA B2eB|1 dB{A}Bc BAG2:|2 dB{A}Bc BAGA||
|:Bdef g2fg|a3f gfed|Bdef g2bg|a3b g2ba|
~b2gb agef|gage dBB2|DEGA B2eB|1 dB{A}Bc BAGA:|2 dB{A}Bc BAG2||

